src/assets/Devices/PS4 Gyro.svg

<svg width="968" height="602" viewBox="0 0 968 602" fill="none" xmlns="http://www.w3.org/2000/svg">
<path d="M307.331 35.9868L307.33 35.9861L307.23 35.8358L307.23 35.8352C303.269 29.8983 298.439 26.8267 292.676 25.3246C287.22 23.9025 280.927 23.9027 274.087 23.903L273.802 23.903H178.331H178.329L176.229 23.9007L176.223 23.9007L175.683 23.899L175.681 23.899L175.46 23.8985C166.639 23.8785 156.77 23.8562 148.459 25.9285C139.956 28.0485 132.473 32.5281 129.513 41.8949L132.28 42.7692L129.513 41.8949C126.38 51.808 119.288 61.8514 110.867 73.7133L113.313 75.4499L110.867 73.7133L110.832 73.7619C105.811 80.8356 100.386 88.4767 95.3347 96.8908C82.9489 117.518 70.3243 151.305 67.6161 161.229C61.1969 184.737 53.7217 207.826 46.2293 230.969C42.9045 241.239 39.5763 251.519 36.3355 261.851C25.8142 295.394 16.2612 329.345 10.9814 364.692L13.9451 365.134L10.9814 364.692C2.14714 423.838 -2.04428 476.847 12.8768 520.647C20.1217 541.914 34.1418 562.711 52.5045 577.436C70.8885 592.177 93.7769 600.938 118.619 597.72C167.736 591.357 213.572 552.371 237.708 486.267C246.543 462.073 249.751 439.924 252.378 421.786L252.387 421.723C254.462 407.399 256.143 395.959 259.731 387.606C261.494 383.502 263.659 380.302 266.433 377.933C268.916 375.812 272.014 374.248 276.027 373.367C291.693 386.459 311.871 394.34 333.883 394.34C356.349 394.34 376.905 386.13 392.702 372.551H576.999C592.797 386.13 613.352 394.34 635.818 394.34C657.571 394.34 677.534 386.644 693.12 373.827C700.497 375.98 704.872 380.836 707.943 388.4C711.31 396.694 712.948 407.864 714.955 421.723L714.965 421.786C717.592 439.924 720.799 462.073 729.634 486.267C753.771 552.371 799.606 591.357 848.724 597.72C873.566 600.938 896.454 592.177 914.838 577.436C933.201 562.711 947.221 541.914 954.466 520.647C969.387 476.847 965.195 423.838 956.361 364.692C951.905 334.858 938.36 286.303 925.666 244.166C917.355 216.582 909.433 191.818 904.55 176.555C901.932 168.371 900.188 162.919 899.726 161.229C897.018 151.305 884.393 117.518 872.008 96.8907C866.957 88.4776 861.533 80.8369 856.512 73.7643L856.502 73.7502L856.484 73.7254L856.477 73.7143L856.472 73.708C848.053 61.8491 840.961 51.8069 837.83 41.8951C834.869 32.5281 827.387 28.0485 818.884 25.9285C810.572 23.8562 800.704 23.8785 791.883 23.8985L791.663 23.899L791.662 23.899L791.115 23.9001C790.408 23.9016 789.708 23.903 789.013 23.903H693.54L693.255 23.903C686.415 23.9027 680.122 23.9025 674.666 25.3246C668.904 26.8267 664.074 29.8983 660.113 35.8352L660.112 35.8358L660.012 35.9861L660.012 35.9868C658.685 37.9771 656.982 40.5286 653.005 42.6994C648.951 44.912 642.263 46.864 630.793 46.864H336.55C325.079 46.864 318.391 44.912 314.338 42.6994C310.361 40.5286 308.657 37.9771 307.331 35.9868Z" stroke="white" stroke-width="6"/>
<path d="M700.613 22.7746L700.342 22.7746C693.212 22.7743 686.88 22.7741 681.42 24.3292C681.765 18.6781 682.683 15.5871 684.85 13.4199C688.614 9.65629 694.93 6.74046 708.151 3.74906C711.288 3.03913 717.407 2.50353 725.173 2.17407C732.889 1.84679 742.091 1.72735 751.307 1.81408C760.524 1.90081 769.736 2.19355 777.474 2.68831C785.267 3.18663 791.408 3.88186 794.58 4.73233C795.978 5.10708 797.296 5.45661 798.541 5.78669C803.34 7.05963 807.05 8.04335 810.038 9.06856C813.771 10.349 816.152 11.624 817.948 13.4199C819.813 15.2841 820.575 16.3373 821.011 18.1991C821.42 19.9515 821.535 22.4074 821.565 26.7072C816.809 24.8699 811.312 23.8966 805.47 23.373C798.543 22.7521 790.982 22.7535 783.405 22.7706C783.405 22.7706 783.405 22.7706 783.405 22.7706L782.859 22.7717L782.856 22.7717C782.149 22.7731 781.448 22.7746 780.753 22.7746H700.613Z" stroke="white" stroke-width="3.53831"/>
<path d="M266.201 22.7746L266.473 22.7746C273.602 22.7743 279.934 22.7741 285.395 24.3292C285.05 18.6781 284.132 15.5871 281.964 13.4199C278.201 9.65629 271.885 6.74046 258.664 3.74906C255.526 3.03913 249.408 2.50353 241.641 2.17407C233.926 1.84679 224.724 1.72735 215.507 1.81408C206.291 1.90081 197.078 2.19355 189.341 2.68831C181.548 3.18663 175.406 3.88186 172.234 4.73233C170.837 5.10708 169.519 5.45661 168.274 5.78669C163.474 7.05963 159.765 8.04335 156.776 9.06856C153.043 10.349 150.662 11.624 148.866 13.4199C147.002 15.2841 146.239 16.3373 145.804 18.1991C145.394 19.9515 145.279 22.4074 145.249 26.7072C150.005 24.8699 155.502 23.8966 161.344 23.373C168.272 22.7521 175.832 22.7535 183.409 22.7706C183.409 22.7706 183.41 22.7706 183.41 22.7706L183.955 22.7717L183.959 22.7717C184.666 22.7731 185.366 22.7746 186.061 22.7746H266.201Z" stroke="white" stroke-width="3.53831"/>
<path d="M147.5 14.8832C198.973 12.3633 228.467 12.0322 283 14.8832" stroke="white" stroke-width="0.5"/>
<path d="M818.5 14.8832C767.473 12.3633 738.235 12.0322 684.175 14.8832" stroke="white" stroke-width="0.5"/>
</svg>

<svg width="968" height="602" fill="none" xmlns="http://www.w3.org/2000/svg"><path d="M307.33 35.986h.001c1.326 1.991 3.03 4.543 7.007 6.714 4.053 2.212 10.741 4.164 22.212 4.164h294.243c11.47 0 18.158-1.952 22.212-4.164 3.977-2.171 5.68-4.723 7.007-6.713l.1-.151h.001c3.961-5.938 8.791-9.01 14.553-10.511 5.456-1.422 11.749-1.422 18.589-1.422h95.758l2.102-.003h.548l.22-.001c8.821-.02 18.689-.043 27.001 2.03 8.503 2.12 15.985 6.6 18.946 15.966 3.131 9.912 10.223 19.954 18.642 31.813l.005.007.007.01.018.025.01.014c5.021 7.073 10.445 14.714 15.496 23.127 12.385 20.627 25.01 54.414 27.718 64.338.443 1.621 2.178 7.049 4.843 15.384l.042.13c12.449 38.924 44.424 138.903 51.75 187.949 8.834 59.146 13.026 112.155-1.895 155.955-7.245 21.267-21.265 42.064-39.628 56.789-18.384 14.741-41.272 23.502-66.114 20.284-49.118-6.362-94.953-45.349-119.09-111.452-8.835-24.195-12.042-46.344-14.669-64.482l-.01-.063c-2.007-13.859-3.645-25.028-7.012-33.323-3.071-7.564-7.446-12.42-14.823-14.573-15.586 12.817-35.549 20.514-57.302 20.514-22.466 0-43.021-8.211-58.819-21.79H392.702c-15.797 13.579-36.353 21.79-58.819 21.79-22.012 0-42.19-7.882-57.856-20.974-4.013.881-7.111 2.445-9.594 4.566-2.774 2.369-4.939 5.569-6.702 9.673-3.588 8.353-5.269 19.793-7.344 34.117l-.009.063c-2.627 18.138-5.835 40.287-14.67 64.482-24.136 66.103-69.972 105.09-119.089 111.452-24.842 3.218-47.73-5.543-66.114-20.284-18.363-14.725-32.383-35.522-39.628-56.789-14.921-43.8-10.73-96.809-1.896-155.955l2.967.443-2.967-.443c7.327-49.046 39.302-149.026 51.75-187.949l.041-.127.001-.003.05-.155v-.002c2.637-8.246 4.353-13.616 4.793-15.226L307.33 35.986Zm0 0-.1-.15m.1.15-.1-.15m0 0c-3.961-5.938-8.791-9.01-14.554-10.511-5.456-1.422-11.749-1.422-18.589-1.422h-95.758l-2.1-.002h-.006l-.54-.002h-.002M307.23 35.835 175.681 23.9m0 0h-.221c-8.821-.02-18.69-.043-27.001 2.03-8.503 2.12-15.986 6.6-18.946 15.966l2.767.874m43.401-18.87L132.28 42.77m0 0-2.767-.874c-3.133 9.913-10.225 19.956-18.646 31.818l2.446 1.737m18.967-32.68-18.967 32.68m0 0-2.446-1.737-.035.049m2.481 1.688-2.481-1.688m0 0c-5.021 7.074-10.446 14.715-15.497 23.129m15.497-23.129L95.335 96.891m0 0c-12.386 20.627-25.01 54.413-27.719 64.338l27.719-64.338Z" stroke="#fff" stroke-width="6"/><path d="M700.613 22.775h-.271c-7.13 0-13.462 0-18.922 1.554.345-5.65 1.263-8.742 3.43-10.91 3.764-3.763 10.08-6.679 23.301-9.67 3.137-.71 9.256-1.245 17.022-1.575 7.716-.327 16.918-.447 26.134-.36 9.217.087 18.429.38 26.167.874 7.793.499 13.934 1.194 17.106 2.044 1.398.375 2.716.725 3.961 1.055 4.799 1.273 8.509 2.256 11.497 3.282 3.733 1.28 6.114 2.555 7.91 4.35 1.865 1.865 2.627 2.918 3.063 4.78.409 1.752.524 4.208.554 8.508-4.756-1.837-10.253-2.81-16.095-3.334-6.927-.62-14.488-.62-22.065-.602h-.549c-.707.002-1.408.004-2.103.004h-80.14Zm-434.413 0h.272c7.129 0 13.461 0 18.922 1.554-.345-5.65-1.263-8.742-3.431-10.91-3.763-3.763-10.079-6.679-23.3-9.67-3.138-.71-9.256-1.245-17.023-1.575-7.715-.327-16.917-.447-26.133-.36-9.217.087-18.43.38-26.167.874-7.793.499-13.935 1.194-17.107 2.044a1378.2 1378.2 0 0 1-3.96 1.055c-4.8 1.273-8.509 2.256-11.498 3.282-3.733 1.28-6.114 2.555-7.91 4.35-1.864 1.865-2.627 2.918-3.062 4.78-.41 1.752-.525 4.208-.555 8.508 4.756-1.837 10.253-2.81 16.095-3.334 6.928-.62 14.488-.62 22.065-.602h.55c.707.002 1.407.004 2.102.004h80.14Z" stroke="#fff" stroke-width="3.538"/><path d="M147.5 14.883c51.473-2.52 80.967-2.85 135.5 0m535.5 0c-51.027-2.52-80.265-2.85-134.325 0" stroke="#fff" stroke-width=".5"/></svg>
